groups/cycloalkanes/cyclooctane.svg

<svg xmlns="http://www.w3.org/2000/svg" xmlns:rdkit="http://www.rdkit.org/xml" xmlns:xlink="http://www.w3.org/1999/xlink" width="256" height="256" baseProfile="full" version="1.1" viewBox="0 0 256 256" xml:space="preserve"><rect style="opacity:1;fill:#fff;stroke:none" width="256" height="256" x="0" y="0"/><path d="M 11.6364,147.14 L 43.8366,142.99" class="bond-0" style="fill:none;fill-rule:evenodd;stroke:#7f7f7f;stroke-width:2px;stroke-linecap:butt;stroke-linejoin:miter;stroke-opacity:1"/><path d="M 43.8366,142.99 L 76.0368,138.839" class="bond-0" style="fill:none;fill-rule:evenodd;stroke:#000;stroke-width:2px;stroke-linecap:butt;stroke-linejoin:miter;stroke-opacity:1"/><path d="M 76.0368,138.839 L 108.354,195.174" class="bond-1" style="fill:none;fill-rule:evenodd;stroke:#000;stroke-width:2px;stroke-linecap:butt;stroke-linejoin:miter;stroke-opacity:1"/><path d="M 76.0368,138.839 L 93.0266,76.1407" class="bond-8" style="fill:none;fill-rule:evenodd;stroke:#000;stroke-width:2px;stroke-linecap:butt;stroke-linejoin:miter;stroke-opacity:1"/><path d="M 108.354,195.174 L 171.053,212.163" class="bond-2" style="fill:none;fill-rule:evenodd;stroke:#000;stroke-width:2px;stroke-linecap:butt;stroke-linejoin:miter;stroke-opacity:1"/><path d="M 171.053,212.163 L 227.387,179.846" class="bond-3" style="fill:none;fill-rule:evenodd;stroke:#000;stroke-width:2px;stroke-linecap:butt;stroke-linejoin:miter;stroke-opacity:1"/><path d="M 227.387,179.846 L 244.364,117.161" class="bond-4" style="fill:none;fill-rule:evenodd;stroke:#000;stroke-width:2px;stroke-linecap:butt;stroke-linejoin:miter;stroke-opacity:1"/><path d="M 244.364,117.161 L 212.047,60.8264" class="bond-5" style="fill:none;fill-rule:evenodd;stroke:#000;stroke-width:2px;stroke-linecap:butt;stroke-linejoin:miter;stroke-opacity:1"/><path d="M 212.047,60.8264 L 149.361,43.8366" class="bond-6" style="fill:none;fill-rule:evenodd;stroke:#000;stroke-width:2px;stroke-linecap:butt;stroke-linejoin:miter;stroke-opacity:1"/><path d="M 149.361,43.8366 L 93.0266,76.1407" class="bond-7" style="fill:none;fill-rule:evenodd;stroke:#000;stroke-width:2px;stroke-linecap:butt;stroke-linejoin:miter;stroke-opacity:1"/><path d="M15.7872,179.346 C18.8349,177.589 18.662,176.247 15.2684,175.32 C11.8748,174.393 11.7018,173.052 14.7495,171.295 C17.7972,169.537 17.6243,168.196 14.2307,167.269 C10.837,166.342 10.6641,165 13.7118,163.243 C16.7595,161.486 16.5866,160.144 13.1929,159.217 C9.79933,158.29 9.62638,156.948 12.6741,155.191 C15.7218,153.434 15.5488,152.092 12.1552,151.165 C8.76161,150.239 8.58866,148.897 11.6364,147.14 C14.6841,145.383 14.5111,144.041 11.1175,143.114 C7.72389,142.187 7.55094,140.845 10.5986,139.088 C13.6464,137.331 13.4734,135.989 10.0798,135.062 C6.68618,134.135 6.51322,132.793 9.56093,131.036 C12.6086,129.279 12.4357,127.937 9.04207,127.01 C5.64846,126.084 5.47551,124.742 8.52321,122.985 C11.5709,121.228 11.398,119.886 8.00435,118.959 C4.61074,118.032 4.43779,116.69 7.48549,114.933" style="fill:none;stroke:#7f7f7f;stroke-width:2px;stroke-linecap:butt;stroke-linejoin:miter;stroke-opacity:1"/></svg>

<svg height="256" viewBox="0 0 256 256" width="256" xmlns="http://www.w3.org/2000/svg"><path d="m0 0h256v256h-256z" fill="#fff"/><g fill="none" stroke-width="2"><path d="m11.636 147.14 32.201-4.15" stroke="#7f7f7f"/><path d="m43.837 142.99 32.2-4.151" stroke="#000"/><path d="m76.037 138.839 32.317 56.335" stroke="#000"/><path d="m76.037 138.839 16.99-62.698" stroke="#000"/><path d="m108.354 195.174 62.699 16.989" stroke="#000"/><path d="m171.053 212.163 56.334-32.317" stroke="#000"/><path d="m227.387 179.846 16.977-62.685" stroke="#000"/><path d="m244.364 117.161-32.317-56.335" stroke="#000"/><path d="m212.047 60.826-62.686-16.989" stroke="#000"/><path d="m149.361 43.837-56.334 32.304" stroke="#000"/><path d="m15.787 179.346c3.048-1.757 2.875-3.099-.519-4.026-3.393-.927-3.566-2.268-.518-4.025 3.047-1.758 2.874-3.099-.519-4.026-3.394-.927-3.567-2.269-.519-4.026s2.875-3.099-.519-4.026-3.567-2.269-.519-4.026 2.875-3.099-.519-4.026c-3.393-.926-3.566-2.268-.519-4.025 3.048-1.757 2.875-3.099-.518-4.026-3.394-.927-3.567-2.269-.519-4.026 3.047-1.757 2.874-3.099-.519-4.026-3.394-.927-3.567-2.269-.519-4.026s2.875-3.099-.519-4.026c-3.394-.926-3.566-2.268-.519-4.025 3.048-1.757 2.875-3.099-.519-4.026-3.393-.927-3.566-2.269-.519-4.026" stroke="#7f7f7f"/></g></svg>
